T: Castell Caernarfon
M: 6/8
L: 1/8
K: Gmaj
|: f/e/ |dBG GBd | ded BAG | BAG GBd | e3 g2 :|
|: g |deg gfg | afd gdB | gab a>gf | e3 g2 g/a/ |
bgb afa | ge/f/g edc | dBG GB/c/d | e3 g2 :|
